icons/FishingBoat_filled.svg

<svg width="24" height="24" viewBox="0 0 24 24" fill="none" xmlns="http://www.w3.org/2000/svg">
<path fill-rule="evenodd" clip-rule="evenodd" d="M13.7501,7.25h1.25c0.4142,0 0.75,0.33579 0.75,0.75v2.25h1.25c0.4142,0 0.75,0.3358 0.75,0.75v1.0085c-2.143,0.8887 -5.7356,2.2414 -7.7501,2.2414c-0.59094,0 -1.18188,-0.0582 -1.74989,-0.1517v-3.0982c0,-0.4142 0.33579,-0.75 0.75,-0.75h1.24999v-2.25c0,-0.41421 0.3358,-0.75 0.75,-0.75h1.25v-3.75c0,-0.41421 0.3358,-0.75 0.75,-0.75c0.4142,0 0.75,0.33579 0.75,0.75zM4.64795,9.62198l2.47433,4.24182c-0.84331,-0.2102 -1.58725,-0.4707 -2.13721,-0.6869l-1.25019,-2.1432l-1.84887,1.1094c-0.35518,0.2131 -0.81588,0.098 -1.029,-0.2572c-0.21312,-0.3552 -0.09797,-0.8159 0.25721,-1.029l2.5,-1.50013c0.17194,-0.10317 0.37804,-0.1332 0.57227,-0.08336c0.19424,0.04983 0.36042,0.17536 0.46146,0.34857zM13.0001,8.75h-1.25v1.5h2.5v-1.5zM20.0302,12.9697l-0.5303,0.5303c0.5303,-0.5303 0.5305,-0.5301 0.5307,-0.53l0.0004,0.0004l0.0009,0.0009l0.0022,0.0023l0.006,0.0061l0.0184,0.019c0.0149,0.0155 0.035,0.0369 0.0597,0.064c0.0493,0.054 0.1169,0.1306 0.1965,0.228c0.1589,0.1942 0.3686,0.4739 0.5783,0.8234c0.4149,0.6915 0.8569,1.7015 0.8569,2.8859c0,0.6669 -0.1769,1.2745 -0.4252,1.8001l-1.4272,-0.4758c-1.2315,-0.4106 -2.5631,-0.4106 -3.7947,-0.0001l-0.4704,0.1568c-0.4105,0.1368 -0.8544,0.1368 -1.2649,0l-0.4699,-0.1567c-1.2316,-0.4106 -2.5632,-0.4106 -3.7948,-0.0001l-0.47038,0.1568c-0.41054,0.1368 -0.85438,0.1368 -1.26491,0l-0.46996,-0.1567c-1.23159,-0.4106 -2.56312,-0.4106 -3.79473,-0.0001l-1.57689,0.5256c-0.16262,-0.4148 -0.27603,-0.8737 -0.27603,-1.3498c0,-0.9178 0.3055,-1.6713 0.59881,-2.1846c0.14754,-0.2583 0.29566,-0.4623 0.40927,-0.6043c0.05699,-0.0712 0.10583,-0.1276 0.14235,-0.168c0.01828,-0.0202 0.03352,-0.0365 0.04521,-0.0488l0.01483,-0.0154l0.00532,-0.0054l0.00211,-0.0022l0.00092,-0.0009l0.00042,-0.0004c0.0002,-0.0002 0.0004,-0.0004 0.53076,0.5299l-0.53036,-0.5303c0.22815,-0.2282 0.57665,-0.2848 0.86532,-0.1408l0.00007,0.0001l0.00016,0.0001l0.00022,0.0001h0.00007l0.00435,0.0022l0.02127,0.0103c0.01967,0.0095 0.05019,0.0241 0.09083,0.0431c0.08131,0.038 0.20296,0.0933 0.35914,0.1602c0.31272,0.134 0.76181,0.3137 1.3011,0.4935c1.08757,0.3625 2.50127,0.7115 3.88783,0.7115c0.6479,0 1.539,-0.1659 2.5527,-0.4423c1.0009,-0.273 2.0711,-0.6395 3.059,-1.0099c0.9863,-0.3699 1.8814,-0.7402 2.5304,-1.0183c0.3242,-0.139 0.5863,-0.2546 0.7668,-0.3352c0.0903,-0.0404 0.1601,-0.0719 0.207,-0.0933l0.053,-0.0241l0.013,-0.006l0.0031,-0.0014l0.0007,-0.0003v-0.0001c0.2853,-0.1316 0.6224,-0.0715 0.8446,0.1507zM7.02792,21.1332c-0.66712,-0.2224 -1.38836,-0.2224 -2.05549,-0.0001l-1.73532,0.5784c-0.39296,0.131 -0.81769,-0.0814 -0.94867,-0.4743c-0.13098,-0.393 0.08141,-0.8177 0.47437,-0.9487l1.73532,-0.5784c0.97502,-0.325 2.02915,-0.325 3.00416,0.0001l0.46996,0.1566c0.66711,0.2224 1.38835,0.2224 2.05545,0.0001l0.4704,-0.1568c0.9751,-0.325 2.0292,-0.325 3.0042,0.0001l0.4699,0.1566c0.6672,0.2224 1.3884,0.2224 2.0555,0.0001l0.4704,-0.1568c0.9751,-0.325 2.0292,-0.325 3.0042,0.0001l1.7348,0.5783c0.393,0.131 0.6054,0.5557 0.4744,0.9487c-0.131,0.3929 -0.5558,0.6053 -0.9487,0.4743l-1.7349,-0.5783c-0.6671,-0.2224 -1.3883,-0.2224 -2.0555,-0.0001l-0.4704,0.1568c-0.975,0.325 -2.0291,0.325 -3.0041,-0.0001l-0.47,-0.1566c-0.6671,-0.2224 -1.3883,-0.2224 -2.0555,-0.0001l-0.4704,0.1568c-0.97499,0.325 -2.02912,0.325 -3.00413,-0.0001z" fill="#002B51"/>
</svg>

<svg width="24" height="24" viewBox="0 0 24 24" fill="none" xmlns="http://www.w3.org/2000/svg">
<path fill-rule="evenodd" clip-rule="evenodd" d="M13.7501 3.5C13.7501 3.08579 13.4143 2.75 13.0001 2.75C12.5859 2.75 12.2501 3.08579 12.2501 3.5V7.25H11.0001C10.5859 7.25 10.2501 7.58579 10.2501 8V10.25H9.00011C8.5859 10.25 8.25011 10.5858 8.25011 11V14.0982C8.81812 14.1917 9.40906 14.2499 10 14.2499C12.0145 14.2499 15.6071 12.8972 17.7501 12.0085V11C17.7501 10.5858 17.4143 10.25 17.0001 10.25H15.7501V8C15.7501 7.58579 15.4143 7.25 15.0001 7.25H13.7501V3.5ZM4.64795 9.62198L7.12228 13.8638C6.27897 13.6536 5.53503 13.3931 4.98507 13.1769L3.73488 11.0337L1.88601 12.1431C1.53083 12.3562 1.07013 12.2411 0.857007 11.8859C0.643884 11.5307 0.759041 11.07 1.11422 10.8569L3.61422 9.35677C3.78616 9.2536 3.99226 9.22357 4.18649 9.27341C4.38073 9.32324 4.54691 9.44877 4.64795 9.62198ZM14.2501 8.75V10.25H11.7501V8.75H13.0001H14.2501ZM20.0302 12.9697L19.4999 13.5C20.0302 12.9697 20.0304 12.9699 20.0306 12.97L20.031 12.9704L20.0319 12.9713L20.0341 12.9736L20.0401 12.9797L20.0585 12.9987C20.0734 13.0142 20.0935 13.0356 20.1182 13.0627C20.1675 13.1167 20.2351 13.1933 20.3147 13.2907C20.4736 13.4849 20.6833 13.7646 20.893 14.1141C21.3079 14.8056 21.7499 15.8156 21.7499 17C21.7499 17.6669 21.573 18.2745 21.3247 18.8001L19.8975 18.3243C18.666 17.9137 17.3344 17.9137 16.1028 18.3242L15.6324 18.481C15.2219 18.6178 14.778 18.6178 14.3675 18.481L13.8976 18.3243C12.666 17.9137 11.3344 17.9137 10.1028 18.3242L9.63242 18.481C9.22188 18.6178 8.77804 18.6178 8.36751 18.481L7.89755 18.3243C6.66596 17.9137 5.33443 17.9137 4.10282 18.3242L2.52593 18.8498C2.36331 18.435 2.2499 17.9761 2.2499 17.5C2.2499 16.5822 2.5554 15.8287 2.84871 15.3154C2.99625 15.0571 3.14437 14.8531 3.25798 14.7111C3.31497 14.6399 3.36381 14.5835 3.40033 14.5431C3.41861 14.5229 3.43385 14.5066 3.44554 14.4943L3.46037 14.4789L3.46569 14.4735L3.4678 14.4713L3.46872 14.4704L3.46914 14.47C3.46934 14.4698 3.46954 14.4696 3.9999 14.9999L3.46954 14.4696C3.69769 14.2414 4.04619 14.1848 4.33486 14.3288L4.33493 14.3289L4.33509 14.329L4.33531 14.3291L4.33538 14.3291L4.33973 14.3313L4.361 14.3416C4.38067 14.3511 4.41119 14.3657 4.45183 14.3847C4.53314 14.4227 4.65479 14.478 4.81097 14.5449C5.12369 14.6789 5.57278 14.8586 6.11207 15.0384C7.19964 15.4009 8.61334 15.7499 9.9999 15.7499C10.6478 15.7499 11.5389 15.584 12.5526 15.3076C13.5535 15.0346 14.6237 14.6681 15.6116 14.2977C16.5979 13.9278 17.493 13.5575 18.142 13.2794C18.4662 13.1404 18.7283 13.0248 18.9088 12.9442C18.9991 12.9038 19.0689 12.8723 19.1158 12.8509L19.1688 12.8268L19.1818 12.8208L19.1849 12.8194L19.1856 12.8191L19.1856 12.819C19.4709 12.6874 19.808 12.7475 20.0302 12.9697ZM7.02792 21.1332C6.3608 20.9108 5.63956 20.9108 4.97243 21.1331L3.23711 21.7115C2.84415 21.8425 2.41942 21.6301 2.28844 21.2372C2.15746 20.8442 2.36985 20.4195 2.76281 20.2885L4.49813 19.7101C5.47315 19.3851 6.52728 19.3851 7.50229 19.7102L7.97225 19.8668C8.63936 20.0892 9.3606 20.0892 10.0277 19.8669L10.4981 19.7101C11.4732 19.3851 12.5273 19.3851 13.5023 19.7102L13.9722 19.8668C14.6394 20.0892 15.3606 20.0892 16.0277 19.8669L16.4981 19.7101C17.4732 19.3851 18.5273 19.3851 19.5023 19.7102L21.2371 20.2885C21.6301 20.4195 21.8425 20.8442 21.7115 21.2372C21.5805 21.6301 21.1557 21.8425 20.7628 21.7115L19.0279 21.1332C18.3608 20.9108 17.6396 20.9108 16.9724 21.1331L16.502 21.2899C15.527 21.6149 14.4729 21.6149 13.4979 21.2898L13.0279 21.1332C12.3608 20.9108 11.6396 20.9108 10.9724 21.1331L10.502 21.2899C9.52701 21.6149 8.47288 21.6149 7.49787 21.2898L7.02792 21.1332Z" fill="#002B51"/>
</svg>
